!!!COM: Claude Goudimel
!!!OMD: Psalm 25: A toy, mon Dieu, mon coeur
**kern	**kern	**kern	**kern
*part4	*part3	*part2	*part1
*staff4	*staff3	*staff2	*staff1
*clefF4	*clefGv2	*clefG2	*clefG2
*k[f#]	*k[f#]	*k[f#]	*k[f#]
!!LO:TX:omd:t=
*M4/4	*M4/4	*M4/4	*M4/4
=1	=1	=1	=1
2GG	2B	2d	2g
4BB	4B	4d	4f#
4C	4G	4c	4e
=2	=2	=2	=2
4GG	4G	4B	4d
2E	2B	2e	2g
4D	4d	4f#	4a
=3	=3	=3	=3
2G	2d	2g	2b
2C	2c	2e	2g
=4	=4	=4	=4
2G	2d	2g	2b
2G	2d	2g	2b
=5	=5	=5	=5
4C	4e	4g	4cc
2G	4d	4g	4b
.	2B	4d	2g
4E	.	[4g	.
=6	=6	=6	=6
2D	2d	4g]	2a
.	.	4f#	.
2GG	2d	2g	2g
=7	=7	=7	=7
2r	2r	2r	2r
2GG	2B	2d	2g
=8	=8	=8	=8
4BB	4B	4d	4f#
4C	4G	4c	4e
4GG	4G	4B	4d
[4E	[4B	[4e	[4g
=9	=9	=9	=9
4E]	4B]	4e]	4g]
4D	4d	4f#	4a
2G	2d	2g	2b
=10	=10	=10	=10
2C	2c	2e	2g
2r	2r	2r	2r
=11	=11	=11	=11
2G	2d	2g	2b
2G	2d	2g	2b
=12	=12	=12	=12
4C	4e	4g	4cc
2G	4d	4g	4b
.	2B	4d	2g
4E	.	[4g	.
=13	=13	=13	=13
2D	2d	4g]	2a
.	.	4f#	.
2GG	2d	2g	2g
=14	=14	=14	=14
2r	2r	2r	2r
2G	2d	2g	2g
=15	=15	=15	=15
2D	2d	2f#	2a
4G	4d	4g	4b
4C	4c	4e	4g
=16	=16	=16	=16
4C	4e	4g	4cc
4C	4e	4g	4cc
2G	2d	2g	2b
=17	=17	=17	=17
2r	2r	2r	2r
2GG	2B	2d	2g
=18	=18	=18	=18
4C	4G	4c	4e
2BB	2B	2d	2f#
4BB	4d	4B	4d
=19	=19	=19	=19
4AA	4c	4c	4e
4GG	4B	4d	4g
2D	2A	2d	2f#
=20	=20	=20	=20
2GG	2B	2d	2g
2r	2r	2r	2r
=21	=21	=21	=21
2G	2d	2g	2b
2G	2d	2g	2b
=22	=22	=22	=22
4C	4c	4e	4g
4C	4e	4g	4cc
4GG	4d	4g	4b
4D	4d	4f#	4a
=23	=23	=23	=23
2E	2B	2e	2g
2r	2r	2r	2r
=24	=24	=24	=24
2G	2d	2g	2b
2G	2B	2g	2dd
=25	=25	=25	=25
4C	4e	4g	4cc
4G	4d	4g	4b
4D	4d	4f#	4a
4E	4B	[4g	4g
=26	=26	=26	=26
2D	2d	4g]	2a
.	.	4f#	.
[2GG	[2d	[2g	[2g
=27	=27	=27	=27
2GG]	2d]	2g]	2g]
2ryy	2ryy	2ryy	2ryy
==	==	==	==
*-	*-	*-	*-
!!!software: music21 v.9.7.1
!!!software: music21 v.8.3.0
!!!RDF**kern: > = above
!!!RDF**kern: < = below
